X:1
T:Title
%%score { ( 1 3 ) | ( 2 4 ) }
L:1/8
Q:1/4=108
M:3/4
K:Eb
V:1 treble nm="Grand Piano"
V:3 treble 
V:2 bass 
V:4 bass 
V:1
 [G,E]>[A,EF] [B,EG]2 [A,DF]2 | [A,DF]2 [G,E]4 | [B,EG]>[B,FA] [EGB]2 [EAc]2 | [EGB]6 | %4
w: E.~Lester~Thurman * * *||||
 [EAc]>[EBd] [Ece]2 [EAc]2 | [EGB]2 [B,EG]4 | [=A,EF]>[A,EF] [A,EG]2 [A,EF]2 | [DF]6 | %8
w: ||||
 [FA]>[FA] [EG]2 [DF]2 | [EG]2 [GB]4 | [Ac]>[Bc] [=Ac]2 e2 | d6 | [Ge]>[Ge] [GB]2 G2 | F2 c2 B>A | %14
w: ||||||
 G4 [DF]2 | E6 | B>c d2 c2 | [Ac]2 [GB]4 | [Ac]>[Bc] [=Ac]2 e2 | d6 | [Ge]>[Ge] [GB]2 G2 | %21
w: |||||||
 F2 c2 B>A | G4 [DF]2 | E6 |] %24
w: |||
V:2
 E,>E, E,2 B,,2 | E,2 E,4 | E,>E, E,2 E,2 | E,6 | A,>A, A,2 A,2 | E,2 E,4 | C,>C, F,2 F,2 | %7
 [B,,B,]6 | [B,,B,]>[B,,B,] [B,,B,]2 [B,,B,]2 | [E,B,]2 [E,E]4 | [A,E]>[G,=E] [G,F]2 [=A,CF]2 | %11
 F4 z2 | [E,B,]>[E,B,] [E,E]2 [E,B,E]2 | [A,C]2[K:treble] [A,CF]2 [G,C=E]>[A,CF] | %14
 [B,E]4 [B,,A,]2 | [E,G,]6 | [B,DA]>[B,EA] [B,FA]2 [B,DA]2 | [E,E]2 [E,E]4 | %18
 [A,E]>[G,=E] [F,F]2[K:treble] [=A,CF]2 | F4 z2 | [E,B,]>[E,B,] [E,E]2 [E,B,E]2 | %21
 [A,C]2[K:treble] [A,CF]2 [G,C=E]>[A,CF] | [B,E]4 [B,,A,]2 | [E,G,]6 |] %24
V:3
 x6 | x6 | x6 | x6 | x6 | x6 | x6 | x6 | x6 | x6 | x6 | z2 z2 A2 | x6 | x6 | x6 | x6 | x6 | x6 | %18
 x6 | z2 z2 A2 | x6 | x6 | x6 | x6 |] %24
V:4
 x6 | x6 | x6 | x6 | x6 | x6 | x6 | x6 | x6 | x6 | x6 | B,6 | x6 | x2[K:treble] x4 | x6 | x6 | x6 | %17
 x6 | x4[K:treble] x2 | B,6 | x6 | x2[K:treble] x4 | x6 | x6 |] %24

